X: 3387
T: JOHN PEEL
%R: march, reel
B: James Kerr "Merry Melodies" v.3 p.43 #387
Z: 2016 John Chambers <jc:trillian.mit.edu>
M: 2/4
L: 1/16
K: A
|:\
e2e2c2c2 | e2ed c4 | d2d2B2B2 | d2dc B4 |\
A2A2a2a2 | fagf e2c2 | ffdB A2G2 | B4 A4 :|
|:\
efed cBcd | efed c2c2 | dedc B2B2 | dedc B2B2 |\
AAce a2a2 | fagf e2c2 | ffdB A2G2 | B4 A4 :|

%%sep 1 1 500
%%sep 1 1 500

